dist/uploads/catalog-sidebar-icons/1/i-catalog-20.svg

<svg width="38" height="38" viewBox="0 0 38 38" fill="none" xmlns="http://www.w3.org/2000/svg">
<path fill-rule="evenodd" clip-rule="evenodd" d="M19 38C29.4934 38 38 29.4934 38 19C38 8.50659 29.4934 0 19 0C8.50659 0 0 8.50659 0 19C0 29.4934 8.50659 38 19 38ZM21.6494 19.7291C22.2492 19.8983 22.8681 19.9829 23.5063 19.9829C24.2445 19.9829 24.8712 19.8714 25.3864 19.6484C25.9015 19.4254 26.286 19.1255 26.5398 18.7488C26.8012 18.3643 26.9319 17.9414 26.9319 17.48C26.9319 16.9418 26.7897 16.515 26.5052 16.1998C26.2283 15.8845 25.8939 15.6538 25.5017 15.5077C25.1096 15.3616 24.6059 15.2156 23.9908 15.0695C23.3987 14.9387 22.9566 14.808 22.6644 14.6773C22.3799 14.5389 22.2376 14.3313 22.2376 14.0545C22.2376 13.7777 22.3606 13.5547 22.6067 13.3855C22.8605 13.2163 23.2488 13.1318 23.7716 13.1318C24.5175 13.1318 25.2633 13.3432 26.0092 13.7661L26.5859 12.3475C26.2168 12.1168 25.7862 11.9399 25.2941 11.8169C24.802 11.6939 24.2983 11.6324 23.7832 11.6324C23.045 11.6324 22.4183 11.7439 21.9031 11.9668C21.3956 12.1898 21.015 12.4936 20.7613 12.878C20.5075 13.2548 20.3807 13.6777 20.3807 14.1467C20.3807 14.685 20.5191 15.1156 20.7959 15.4385C21.0804 15.7615 21.4187 15.996 21.8109 16.1421C22.203 16.2882 22.7067 16.4343 23.3218 16.5804C23.7216 16.6727 24.0369 16.7572 24.2676 16.8341C24.506 16.911 24.6982 17.0148 24.8443 17.1456C24.9981 17.2686 25.075 17.4262 25.075 17.6184C25.075 17.8799 24.9481 18.0913 24.6943 18.2528C24.4406 18.4066 24.0484 18.4835 23.5179 18.4835C23.0411 18.4835 22.5644 18.4066 22.0877 18.2528C21.6109 18.099 21.1996 17.8953 20.8536 17.6415L20.2192 19.0486C20.5806 19.3255 21.0573 19.5523 21.6494 19.7291ZM10.6859 15.6462C11.1473 15.7922 11.5087 16.0383 11.7701 16.3843C12.0315 16.7226 12.1622 17.1417 12.1622 17.6415C12.1622 18.3489 11.8854 18.8949 11.3318 19.2793C10.7859 19.6561 9.98618 19.8445 8.93276 19.8445H4.75749V11.7708H8.70208C9.6863 11.7708 10.4398 11.9592 10.9627 12.3359C11.4933 12.7127 11.7586 13.224 11.7586 13.8699C11.7586 14.2621 11.6624 14.6119 11.4702 14.9195C11.2857 15.2271 11.0242 15.4693 10.6859 15.6462ZM6.61445 13.1779V15.081H8.4714C8.93276 15.081 9.28262 15.0003 9.52098 14.8388C9.75935 14.6773 9.87853 14.4389 9.87853 14.1237C9.87853 13.8084 9.75935 13.5739 9.52098 13.4201C9.28262 13.2586 8.93276 13.1779 8.4714 13.1779H6.61445ZM8.79435 18.4373C9.28646 18.4373 9.65555 18.3566 9.9016 18.1951C10.1553 18.0337 10.2822 17.7838 10.2822 17.4454C10.2822 16.7765 9.78626 16.442 8.79435 16.442H6.61445V18.4373H8.79435ZM19.5975 18.3451V19.8445H13.3462V11.7708H19.4476V13.2702H15.2031V15.0233H18.9516V16.4766H15.2031V18.3451H19.5975ZM29.5378 13.2932H26.9542V11.7708H33.9898V13.2932H31.4062V19.8445H29.5378V13.2932ZM4.82695 26.5324C5.17824 26.6315 5.54078 26.681 5.91459 26.681C6.34695 26.681 6.714 26.6157 7.01575 26.4851C7.3175 26.3545 7.54268 26.1788 7.6913 25.9582C7.84443 25.733 7.92099 25.4853 7.92099 25.215C7.92099 24.8998 7.83767 24.6498 7.67104 24.4652C7.5089 24.2805 7.31299 24.1454 7.0833 24.0598C6.85361 23.9743 6.55862 23.8887 6.19832 23.8031C5.85154 23.7266 5.59258 23.65 5.42144 23.5734C5.2548 23.4924 5.17148 23.3708 5.17148 23.2086C5.17148 23.0465 5.24354 22.9159 5.38766 22.8168C5.53628 22.7177 5.76372 22.6682 6.06997 22.6682C6.50683 22.6682 6.94369 22.7921 7.38055 23.0398L7.71832 22.2088C7.50215 22.0737 7.24994 21.9701 6.9617 21.8981C6.67347 21.826 6.37847 21.79 6.07672 21.79C5.64437 21.79 5.27732 21.8553 4.97557 21.9859C4.67832 22.1165 4.45539 22.2944 4.30677 22.5196C4.15815 22.7403 4.08384 22.988 4.08384 23.2627C4.08384 23.578 4.1649 23.8302 4.32704 24.0193C4.49367 24.2085 4.69184 24.3458 4.92152 24.4314C5.15121 24.517 5.44621 24.6025 5.8065 24.6881C6.0407 24.7422 6.22535 24.7917 6.36046 24.8367C6.50007 24.8818 6.61267 24.9426 6.69824 25.0191C6.78831 25.0912 6.83335 25.1835 6.83335 25.2961C6.83335 25.4492 6.75904 25.5731 6.61041 25.6677C6.46179 25.7577 6.2321 25.8028 5.92135 25.8028C5.64212 25.8028 5.36289 25.7577 5.08366 25.6677C4.80443 25.5776 4.56348 25.4583 4.36081 25.3096L3.98926 26.1338C4.20093 26.2959 4.48016 26.4288 4.82695 26.5324ZM12.1952 26.5999V25.7217H9.62133V24.6273H11.8169V23.7761H9.62133V22.7493H12.1074V21.871H8.53369V26.5999H12.1952ZM12.9309 21.871H14.0253V25.7082H16.3965V26.5999H12.9309V21.871ZM17.9672 21.871H16.8728V26.5999H20.3384V25.7082H17.9672V21.871ZM24.4763 25.7217V26.5999H20.8148V21.871H24.3885V22.7493H21.9025V23.7761H24.098V24.6273H21.9025V25.7217H24.4763ZM27.313 25.2826L28.225 26.5999H29.4004L28.3398 25.0799C28.6506 24.9448 28.8893 24.7512 29.0559 24.499C29.227 24.2422 29.3126 23.9382 29.3126 23.587C29.3126 23.2357 29.2293 22.9317 29.0627 22.675C28.896 22.4182 28.6573 22.2201 28.3466 22.0805C28.0403 21.9409 27.6778 21.871 27.2589 21.871H25.212V26.5999H26.3064V25.2826H27.2589H27.313ZM27.948 22.979C28.1191 23.1186 28.2047 23.3212 28.2047 23.587C28.2047 23.8482 28.1191 24.0508 27.948 24.195C27.7769 24.3391 27.5269 24.4111 27.1981 24.4111H26.3064V22.7628H27.1981C27.5269 22.7628 27.7769 22.8348 27.948 22.979ZM31.5984 26.681C31.2246 26.681 30.862 26.6315 30.5107 26.5324C30.1639 26.4288 29.8847 26.2959 29.673 26.1338L30.0446 25.3096C30.2473 25.4583 30.4882 25.5776 30.7674 25.6677C31.0467 25.7577 31.3259 25.8028 31.6051 25.8028C31.9159 25.8028 32.1456 25.7577 32.2942 25.6677C32.4428 25.5731 32.5171 25.4492 32.5171 25.2961C32.5171 25.1835 32.4721 25.0912 32.382 25.0191C32.2964 24.9426 32.1839 24.8818 32.0442 24.8367C31.9091 24.7917 31.7245 24.7422 31.4903 24.6881C31.13 24.6025 30.835 24.517 30.6053 24.4314C30.3756 24.3458 30.1775 24.2085 30.0108 24.0193C29.8487 23.8302 29.7676 23.578 29.7676 23.2627C29.7676 22.988 29.8419 22.7403 29.9905 22.5196C30.1392 22.2944 30.3621 22.1165 30.6593 21.9859C30.9611 21.8553 31.3281 21.79 31.7605 21.79C32.0623 21.79 32.3572 21.826 32.6455 21.8981C32.9337 21.9701 33.1859 22.0737 33.4021 22.2088L33.0643 23.0398C32.6275 22.7921 32.1906 22.6682 31.7537 22.6682C31.4475 22.6682 31.2201 22.7177 31.0714 22.8168C30.9273 22.9159 30.8553 23.0465 30.8553 23.2086C30.8553 23.3708 30.9386 23.4924 31.1052 23.5734C31.2764 23.65 31.5353 23.7266 31.8821 23.8031C32.2424 23.8887 32.5374 23.9743 32.7671 24.0598C32.9968 24.1454 33.1927 24.2805 33.3548 24.4652C33.5215 24.6498 33.6048 24.8998 33.6048 25.215C33.6048 25.4853 33.5282 25.733 33.3751 25.9582C33.2265 26.1788 33.0013 26.3545 32.6995 26.4851C32.3978 26.6157 32.0307 26.681 31.5984 26.681Z" fill="#FFC800"/>
</svg>

<svg width="38" height="38" fill="none" xmlns="http://www.w3.org/2000/svg"><path fill-rule="evenodd" clip-rule="evenodd" d="M19 38c10.493 0 19-8.507 19-19S29.493 0 19 0 0 8.507 0 19s8.507 19 19 19zm2.65-18.27c.6.168 1.218.253 1.856.253.738 0 1.365-.112 1.88-.335.515-.223.9-.523 1.154-.9.261-.384.392-.807.392-1.268 0-.538-.142-.965-.427-1.28a2.458 2.458 0 0 0-1.003-.692 13.154 13.154 0 0 0-1.511-.438c-.592-.131-1.034-.262-1.327-.393-.284-.138-.426-.346-.426-.622 0-.277.123-.5.369-.67.253-.169.642-.253 1.165-.253.745 0 1.491.211 2.237.634l.577-1.418c-.37-.231-.8-.408-1.292-.531a6.208 6.208 0 0 0-1.51-.185c-.739 0-1.366.112-1.88.335-.508.223-.889.527-1.143.911-.253.377-.38.8-.38 1.269 0 .538.138.969.415 1.291.284.323.623.558 1.015.704.392.146.896.292 1.51.438.4.093.716.177.947.254.238.077.43.18.576.312.154.123.231.28.231.472 0 .262-.127.473-.38.635-.254.154-.647.23-1.177.23-.477 0-.954-.076-1.43-.23a4.302 4.302 0 0 1-1.234-.611l-.635 1.407c.362.277.838.503 1.43.68zm-10.964-4.084c.461.146.823.392 1.084.738.261.339.392.758.392 1.258 0 .707-.277 1.253-.83 1.637-.546.377-1.346.566-2.4.566H4.758V11.77h3.945c.984 0 1.738.188 2.26.565.531.377.797.888.797 1.534 0 .392-.097.742-.289 1.05-.184.307-.446.55-.784.726zm-4.072-2.468v1.903h1.857c.462 0 .812-.08 1.05-.242.238-.162.358-.4.358-.715 0-.316-.12-.55-.358-.704-.238-.161-.588-.242-1.05-.242H6.614zm2.18 5.26c.492 0 .862-.081 1.108-.243.253-.161.38-.411.38-.75 0-.669-.496-1.003-1.488-1.003h-2.18v1.995h2.18zm10.803-.093v1.5h-6.25V11.77h6.1v1.5h-4.244v1.752h3.749v1.454h-3.749v1.868h4.395zm9.94-5.052h-2.583v-1.522h7.036v1.522h-2.584v6.552h-1.868v-6.552zm-24.71 13.24a4.03 4.03 0 0 0 1.088.148c.432 0 .799-.065 1.1-.196.303-.13.528-.306.676-.527.153-.225.23-.473.23-.743 0-.315-.083-.565-.25-.75a1.44 1.44 0 0 0-.588-.405 7.725 7.725 0 0 0-.885-.257 4.288 4.288 0 0 1-.777-.23c-.166-.08-.25-.202-.25-.364 0-.162.073-.293.217-.392.148-.1.376-.149.682-.149.437 0 .874.124 1.31.372l.338-.831a2.613 2.613 0 0 0-.756-.31 3.633 3.633 0 0 0-.885-.109c-.433 0-.8.065-1.101.196a1.49 1.49 0 0 0-.67.534 1.3 1.3 0 0 0-.222.743c0 .315.08.567.243.756.167.19.365.327.595.412.23.086.524.171.885.257.234.054.418.104.553.149.14.045.253.106.338.182a.34.34 0 0 1 .135.277c0 .153-.074.277-.223.372-.148.09-.378.135-.689.135-.279 0-.558-.045-.837-.135a2.52 2.52 0 0 1-.723-.358l-.372.824c.212.162.491.295.838.398zm7.368.067v-.878H9.621v-1.095h2.196v-.85H9.62v-1.028h2.486v-.878H8.534V26.6h3.661zm.736-4.729h1.094v3.837h2.371v.892h-3.465v-4.73zm5.036 0h-1.094V26.6h3.465v-.892h-2.37v-3.837zm6.51 3.85v.879h-3.662v-4.73h3.573v.878h-2.486v1.027h2.196v.851h-2.195v1.095h2.573zm2.836-.438l.912 1.317H29.4l-1.06-1.52c.31-.135.55-.329.716-.581.171-.257.257-.56.257-.912 0-.351-.084-.655-.25-.912a1.618 1.618 0 0 0-.716-.595c-.307-.14-.67-.209-1.088-.209h-2.047V26.6h1.094v-1.317h1.007zm.635-2.304c.171.14.257.342.257.608 0 .261-.086.464-.257.608-.171.144-.421.216-.75.216h-.892v-1.648h.892c.329 0 .579.072.75.216zm3.65 3.702c-.373 0-.736-.05-1.087-.149a2.585 2.585 0 0 1-.838-.398l.372-.824c.202.148.443.268.722.358.28.09.559.135.838.135.31 0 .54-.045.69-.135.148-.095.222-.219.222-.372a.34.34 0 0 0-.135-.277.927.927 0 0 0-.338-.182 6.388 6.388 0 0 0-.554-.149 7.706 7.706 0 0 1-.885-.257 1.464 1.464 0 0 1-.594-.412c-.162-.189-.243-.441-.243-.756a1.3 1.3 0 0 1 .223-.743c.148-.226.371-.404.668-.534.302-.13.67-.196 1.102-.196.301 0 .596.036.884.108.289.072.54.176.757.31l-.338.832c-.437-.248-.873-.372-1.31-.372-.306 0-.534.05-.683.149a.455.455 0 0 0-.216.392c0 .162.084.283.25.364.171.077.43.154.777.23.36.086.655.171.885.257.23.085.426.22.588.405.167.185.25.435.25.75 0 .27-.077.518-.23.743-.148.22-.374.397-.675.527-.302.13-.67.196-1.102.196z" fill="#FFC800"/></svg>
